X: 1442
T: Anascaul, The
R: polka
M: 2/4
K: Adorian
|:A>B cd|ef ge|ag/e/ dB|BA GB|
AB cd|ef ge|ag/e/ dB|A2 A2:|
|:ag ed|ef g2|ag/e/ dB|BA GB|
AB cd|ef ge|ag/e/ dB|A2 A2:|

